X:33
T:The Mountain Road
C:Michael Gorman
R:Irish reel
S:Tune of the Month, Dec. 2001, Sivler Apple News 8
Z:Paul Stewart Cranford (P.S.C.), <http://www.cranfordpub.com>
Q:333
L:1/8
M:C|
K:D
DE|F2 AF BFAF|F2 AF EFDE|F2 AF BFAF|G3 F EDB,D|  
F2 AF BFAF|F2 AF EFDE|F3 A BAFB|ABde fdd z||
||d/d/d dB ADFA|d3 e fgfe|defd AFDF|(3(GFE) (3(FED) EB,B,D|  
d3 B ADFA|dcde fgfe|defd AFDF|(3(GFE) (3(FED) EB,B,D||
||d3 e fded|d2 de fBBc|defd ecdB|AGFD EB,B,D|  
d3 e fded|d2 de fBBf|(3(gag) (3(fgf) (3(efe) dB|ABde fdd||  
|:A|DFAF BFAF|DFAF EA, A,2|DAAc BAFB|ABde fdd:|  
||e|dcBA BAFB|AFEG FDDE|F2 AF BFAF|ABde fgfe|  
dB B/B/B BAFB|AFEG FDDE|F2 AF BFAF|ABde fdd||  
||e|fa a/a/a abaf|g2 fg edBd|fa a/a/a abaf|ABde fdde|  
fgag abaf|g2 fg edBG|F/F/F AF GABG|ABde fdd|]
